X:1
T:Angel vopijasje
T:Angel vopijasje
T:Modest Musorgski
C:Modest Musorgski
%%score [ ( 1 2 ) 3 4 5 ]
L:1/8
Q:1/2=52
M:6/2
K:A
V:1 treble nm="Soprano"
V:2 treble 
V:3 treble nm="Alto"
V:4 treble-8 nm="Tenor"
V:5 bass nm="Bass"
V:1
 z24 |[M:5/2] c4 c2 B2 A2 B2 c2 (BA) B2 B2 |[M:4/2] c2 c2 c2 d2 (e2 dc) d2 e2 | %3
w: |Tsjis- ta- ja De- vo, ra- dui- * sja i|pa- ki re- ku: ra- * * dui- sja!|
 [Bd]4 [FA]2 [GB]2 ([Ac]2 [GB][FA]) [GB]2 [GB]2 | [Bd]4 [FA]2 [GB]2 ([Ac]2 [GB][FA]) [GB]2 [GB]2 | %5
w: Tvoi Sin vos- kre- * * se tri-|dne- ven ot gro- * * ba i|
 [Ac]2 [Ac]2 [Ac]2 [Bd]2 (e2 dc) B2 A2 |[M:6/2] f4 f2 f2 e2 d2 c4 A4 B4 ||[M:5/2] E2 | %8
w: mert- vi- ja voz- dvig- * * nu- vii,|lju- di- e, ve- se- li- te- sja!|Sve-|
 E4 E4 E4 E4 E4 |[M:4/2] E2 E2 E2 F2 G2 A2 [GB]2 [Ac]2 | %10
w: ti- sja, sve- ti- sja,|no- vii I- e- ru- sa- li- me,|
 [Bd]2 [Bd]2 [FA]2 [GB]2 ([Ac]2 [GB][FA]) ([GB]2 [Ac]2) | [Bd]2 [ce]2 [df]4 e2 d2 c z || A2 | %13
w: sla- va vo Gos- pod- * * nja _|na te- be voz- si- ja.|Li-|
 e8- e8- |[M:5/2] e8- e2 (ed) (e2 c2) B4 |[M:4/2] B2 B2 B3 B B2 B2 B2 B2 | B2 B2 B2 B2 c4 c2 ^d2 | %17
w: kui _|_ _ Si- * o- * ne.|Ti zje, Tsjis- ta- ja, kra- sui- sja,|Bo- go- ro- di- tse, o vos-|
 e8- e4 e2 e2 |[M:2/4] e2 e2 |[M:4/2] [cf]8 [cf]4 [eg]4 | !fermata![eg]8 |] %21
w: ta- * ni- i|Rozj- de-|stva Tvo- e-|go!|
V:2
 x24 |[M:5/2] x20 |[M:4/2] x16 | x16 | x16 | x8 A4 B2 A2 |[M:6/2] x16 (E2 F2) G4 ||[M:5/2] x2 | %8
 x20 |[M:4/2] x16 | x16 | x14 || x2 | x16 |[M:5/2] x20 |[M:4/2] x16 | x16 | x16 |[M:2/4] x4 | %19
[M:4/2] x16 | x8 |] %21
V:3
 z24 |[M:5/2] A4 A2 G2 F2 G2 A2 (GF) G2 G2 |[M:4/2] A2 A2 A2 B2 (c2 BA) B2 c2 | F4 C2 E2 E4 E2 E2 | %4
w: |Tsjis- ta- ja De- vo, ra- dui- * sja i|pa- ki re- ku: ra- * * dui- sja!|Tvoi Sin vos- kre- se tri-|
 F4 C2 E2 E4 E2 E2 | E2 E2 E2 F2 (E2 F2) G2 F2 |[M:6/2] A4 A2 A2 E2 E2 E4 E4 E4 ||[M:5/2] B,2 | %8
w: dne- ven ot gro- ba i|mert- vi- ja voz- dvig- * nu- vii,|lju- di- e, ve- se- li- te- sja!|Sve-|
 B,4 B,4 B,4 B,4 B,4 |[M:4/2] B,2 B,2 B,2 E2 E2 E2 E2 E2 | F2 F2 E2 E2 E4 E4 | %11
w: ti- sja, sve- ti- sja,|no- vii I- e- ru- sa- li- me,|sla- va vo Gos- pod- nja|
 F2 A2 A4 E2 E2 E z || z2 | z2 E2 (A2 GF) (G2 F2) E4 |[M:5/2] E2 F G (A2 B2) A2 (GF) (G2 F2) G4 | %15
w: na te- be voz- si- ja.||Li- kui _ _ ni- * ne|i ve- se- li- * sja, Si- * o- * ne.|
[M:4/2] G2 G2 F3 ^D E2 F2 G2 G2 | G2 (GA) G2 F2 C4 z4 | z4 E2 E2 A4 A2 A2 |[M:2/4] A2 A2 | %19
w: Ti zje, Tsjis- ta- ja, kra- sui- sja,|Bo- go- * ro- di- tse,|o vos- ta- ni- i|Rozj- de-|
[M:4/2] [FA]8 [FA]4 [GB]4 | !fermata![GB]8 |] %21
w: stva Tvo- e-|go!|
V:4
 e2 e2 e2 e2 e2 f2 d2 c2 (B2 ce) e4- |[M:5/2] e8- e8- e4- |[M:4/2] e8- e8 | %3
w: An- gel vo- pi- ja- sje Bla- go- dat- * * nei:|_ _ _||
 B4 A2 B2 (A2 BA) B2 B2 | B4 A2 B2 (A2 BA) B2 B2 | c2 c2 c2 B2 A4 G2 A2 | %6
w: Tvoi Sin vos- kre- * * se tri-|dne- ven ot gro- * * ba i|mert- vi- ja voz- dvig- nu- vii,|
[M:6/2] d4 d2 d2 A2 G2 A4 A4 B4 ||[M:5/2] G2 | G4 G4 G4 G4 G4 | %9
w: lju- di- e, ve- se- li- te- sja!|Sve-|ti- sja, sve- ti- sja,|
[M:4/2] G2 G2 G2 A2 B2 (cA) [GB]2 [Ac]2 | B2 B2 A2 B2 (A2 BA) (B2 A2) | B2 c2 d4 A2 G2 A z || A2 | %13
w: no- vii I- e- ru- sa- * li- me,|sla- va vo Gos- pod- * * nja _|na te- be voz- si- ja.|Li-|
 e8- e8- |[M:5/2] e8- e2 e2 e4 e4 |[M:4/2] B2 B2 B3 B B2 B2 B2 B2 | B2 B2 B2 B2 c4 c2 ^d2 | %17
w: kui _|_ _ Si- o- ne.|Ti zje, Tsjis- ta- ja, kra- sui- sja,|Bo- go- ro- di- tse, o vos-|
 e8- e4 e2 e2 |[M:2/4] e2 e2 |[M:4/2] f8 f4 e4 | !fermata!e8 |] %21
w: ta- * ni- i|Rozj- de-|stva Tvo- e-|go!|
V:5
 E,2 E,2 E,2 E,2 E,2 F,2 D,2 C,2 ((B,,2 [A,,A,][G,,G,])) [E,,E,]4- | %1
w: An- gel vo- pi- ja- sje Bla- go- dat- * * nei:|
[M:5/2] [E,,E,]8- [E,,E,]8- [E,,E,]4 |[M:4/2] z16 | B,,4 F,2 E,2 (A,,2 E,2) E,2 E,2 | %4
w: _ _ _||Tvoi Sin vos- kre- * se tri-|
 B,,4 F,2 E,2 (A,,2 E,2) E,2 E,2 | A,,2 A,,2 A,,2 B,,2 (C,2 D,2) E,2 F,2 | %6
w: dne- ven ot gro- * ba i|mert- vi- ja voz- dvig- * nu- vii,|
[M:6/2] D,4 D,2 D,2 C,2 B,,2 A,,4 C,4 E,4 ||[M:5/2] z2 | %8
w: lju- di- e, ve- se- li- te- sja!||
 z2 B,,2 D,2 D,2 D,4 (B,,2 C,D,) (E,2 B,,2) |[M:4/2] D,2 D,2 D,2 C,2 B,,2 (A,,C,) E,2 E,2 | %10
w: Sve- ti- sja, sve- ti- * * sja, _|no- vii I- e- ru- sa- * li- me,|
 B,,2 B,,2 F,2 E,2 (A,,2 E,2) (E,2 C,2) | B,,2 A,,2 D,4 C,2 B,,2 A,, z || z2 | %13
w: sla- va vo Gos- pod- * nja _|na te- be voz- si- ja.||
 z2 E,2 (C2 B,A,) (B,2 A,2) E,4 |[M:5/2] E,2 A, B, (C2 D2) C2 (B,A,) (B,2 A,2) E,4 | %15
w: Li- kui _ _ ni- * ne|i ve- se- li- * sja, Si- * o- * ne.|
[M:4/2] E,2 E,2 ^D,3 B,, C,2 D,2 E,2 E,2 | E,2 (E,F,) E,2 ^D,2 C,4 z4 | z4 E,2 E,2 C4 C2 C2 | %18
w: Ti zje, Tsjis- ta- ja, kra- sui- sja,|Bo- go- * ro- di- tse,|o vos- ta- ni- i|
[M:2/4] C2 C2 |[M:4/2] [A,C]8 [A,C]4 [E,B,]4 | !fermata![E,B,]8 |] %21
w: Rozj- de-|stva Tvo- e-|go!|

